X: 90
T: Cai cha
%%abc-version 2.0
%%abcx-abcm2ps-target-version 5.9.1 (29 Sep 2008)
%%abc-creator hum2abc beta
%%abcx-conversion-date 2013/10/02 07:52:29
%%abc-edited-by Helmut Schaffrath
%%humdrum-veritas 2897602714
%%humdrum-veritas-data 3641893374
%%continueall 1
%%barnumbers 0
L: 1/8
M: 2/4
K: G
E G d e [I:setbarnb 1]| 
G3A | 
B d A B | 
d2d B | 
A4 | 
A B d d | 
A B A G | 
E DG2- | 
G2A G | 
E GD2- | 
D ED2 |]  



